Origami/24x24/apps/krdc.svg

<svg width="24" height="24" version="1" xmlns="http://www.w3.org/2000/svg">
 <rect transform="matrix(0,-1,-1,0,0,0)" x="-20" y="-22" width="16" height="20" rx="1" ry="1" style="fill:#325f78"/>
 <rect transform="matrix(0,-1,-1,0,0,0)" x="-18" y="-20" width="12" height="16" rx="0" ry="0" style="opacity:.2"/>
 <path d="m3 4c-0.554 0-1 0.446-1 1v0.5c0-0.554 0.446-1 1-1h18c0.554 0 1 0.446 1 1v-0.5c0-0.554-0.446-1-1-1h-18z" style="fill:#ffffff;opacity:.1"/>
 <path d="m2 19v0.5c0 0.554 0.446 1 1 1h18c0.554 0 1-0.446 1-1v-0.5c0 0.554-0.446 1-1 1h-18c-0.554 0-1-0.446-1-1z" style="opacity:.2"/>
 <circle cx="17" cy="17" r="6" style="fill:#48cd42"/>
 <path d="m14 14h0.5c3.0376 0 5.5 2.4624 5.5 5.5v0.5h-0.5c-0.273 0-0.5-0.225-0.5-0.5 0-2.485-2.015-4.5-4.5-4.5-0.273 0-0.5-0.225-0.5-0.5v-0.5z" style="fill:#ffffff"/>
 <path d="m14 16h0.5c1.933 0 3.5 1.567 3.5 3.5v0.5h-0.5c-0.273 0-0.5-0.225-0.5-0.5 0-1.381-1.119-2.5-2.5-2.5-0.273 0-0.5-0.225-0.5-0.5v-0.5z" style="fill:#ffffff"/>
 <path d="m15 18c0.5523 0 1 0.44772 1 1s-0.44772 1-1 1-1-0.44772-1-1 0.44772-1 1-1z" style="fill:#ffffff"/>
</svg>

<svg xmlns="http://www.w3.org/2000/svg" width="24" height="24" version="1">
 <rect style="fill:#325f78" width="16" height="20" x="-20" y="-22" rx="1" ry="1" transform="matrix(0,-1,-1,0,0,0)"/>
 <rect style="opacity:0.2" width="12" height="16" x="-18" y="-20" rx="0" ry="0" transform="matrix(0,-1,-1,0,0,0)"/>
 <path style="opacity:0.1;fill:#ffffff" d="M 3,4 C 2.446,4 2,4.446 2,5 l 0,0.5 c 0,-0.554 0.446,-1 1,-1 l 18,0 c 0.554,0 1,0.446 1,1 L 22,5 C 22,4.446 21.554,4 21,4 L 3,4 Z"/>
 <path style="opacity:0.2" d="m 2,19 0,0.5 c 0,0.554 0.446,1 1,1 l 18,0 c 0.554,0 1,-0.446 1,-1 L 22,19 c 0,0.554 -0.446,1 -1,1 L 3,20 C 2.446,20 2,19.554 2,19 Z"/>
 <circle style="fill:#48cd42" cx="17" cy="17" r="6"/>
 <path style="fill:#ffffff" d="m 14,14 0.5,0 c 3.0376,0 5.5,2.4624 5.5,5.5 l 0,0.5 -0.5,0 C 19.227,20 19,19.775 19,19.5 19,17.015 16.985,15 14.5,15 14.227,15 14,14.775 14,14.5 L 14,14 Z"/>
 <path style="fill:#ffffff" d="m 14,16 0.5,0 c 1.933,0 3.5,1.567 3.5,3.5 l 0,0.5 -0.5,0 C 17.227,20 17,19.775 17,19.5 17,18.119 15.881,17 14.5,17 14.227,17 14,16.775 14,16.5 L 14,16 Z"/>
 <path style="fill:#ffffff" d="m 15,18 c 0.5523,0 1,0.44772 1,1 0,0.55228 -0.44772,1 -1,1 -0.55228,0 -1,-0.44772 -1,-1 0,-0.55228 0.44772,-1 1,-1 z"/>
</svg>
